X:1
T:Lark in the Morning -- Jig
R:jig
B:Ryan's Mammoth Collection
N: 456
Z: Contributed by Ray Davies,  ray:davies99.freeserve.co.uk
M:6/8
L:1/8
K:Em
u(B/A/)|\
vGEE EGA | BAB BdB | AFD DFA | AFA ABc |
BEE EGA | BAB Bee | dBB BAB | GEE E2:|
|:ue|\
veBe efg | fdd (d2"4".e) | dAd d"4"ed | BAA A2.e |
eBe efg | agf gfe | dBB BAB | GEE E2:|
